src/images/courses/css/logo.svg

<svg width="256" height="80" viewBox="0 0 256 80" fill="none" xmlns="http://www.w3.org/2000/svg">
<path d="M0 20H6.12022V53.2787H22.8962V59.1257H0L0 20Z" fill="#3C4043"/>
<path d="M39.7596 60C37.1003 60 34.6959 59.3807 32.5465 58.1421C30.4336 56.9035 28.776 55.1913 27.5739 53.0055C26.3717 50.7832 25.7706 48.306 25.7706 45.5738C25.7706 42.9508 26.3352 40.5464 27.4646 38.3607C28.6303 36.1384 30.2514 34.3898 32.328 33.1148C34.4045 31.8033 36.7724 31.1475 39.4318 31.1475C42.164 31.1475 44.532 31.7486 46.5356 32.9508C48.5757 34.153 50.1239 35.8288 51.1804 37.9781C52.2369 40.0911 52.7651 42.5319 52.7651 45.3005C52.7651 45.6284 52.7469 45.9563 52.7105 46.2842C52.674 46.612 52.6558 46.7942 52.6558 46.8306H31.7815C31.9637 49.3078 32.8562 51.2204 34.4591 52.5683C36.062 53.9162 37.8835 54.5902 39.9236 54.5902C43.0565 54.5902 45.4609 53.133 47.1367 50.2186L52.2733 52.6776C51.0711 54.8998 49.3953 56.6849 47.246 58.0328C45.1331 59.3443 42.6376 60 39.7596 60ZM46.6449 42.2404C46.572 41.3661 46.2806 40.4736 45.7706 39.5628C45.2606 38.6521 44.4591 37.8871 43.3662 37.2678C42.3097 36.612 40.98 36.2842 39.3771 36.2842C37.5921 36.2842 36.0438 36.8306 34.7323 37.9235C33.4573 39.0164 32.583 40.4554 32.1094 42.2404H46.6449Z" fill="#3C4043"/>
<path d="M66.8857 60C64.9549 60 63.2062 59.6175 61.6398 58.8525C60.1097 58.051 58.8893 56.9581 57.9786 55.5738C57.1042 54.153 56.6671 52.5501 56.6671 50.765C56.6671 47.9235 57.7236 45.6831 59.8365 44.0437C61.9859 42.4044 64.6999 41.5847 67.9786 41.5847C70.8565 41.5847 73.3155 42.0765 75.3556 43.0601V41.9126C75.3556 40.2732 74.6999 38.9253 73.3884 37.8689C72.1133 36.776 70.5651 36.2295 68.7436 36.2295C65.9749 36.2295 63.7527 37.3588 62.0769 39.6175L57.4868 36.4481C58.7618 34.7359 60.3465 33.4244 62.2409 32.5137C64.1716 31.6029 66.3392 31.1475 68.7436 31.1475C72.7144 31.1475 75.7746 32.1494 77.9239 34.153C80.1097 36.1202 81.2026 38.9071 81.2026 42.5137V59.1257H75.3556V55.7924H75.0277C74.1534 57.031 73.0423 58.051 71.6944 58.8525C70.3465 59.6175 68.7436 60 66.8857 60ZM67.8693 55.0273C69.2172 55.0273 70.4558 54.6995 71.5851 54.0437C72.7509 53.3516 73.6616 52.459 74.3174 51.3661C75.0095 50.2368 75.3556 49.0346 75.3556 47.7596C73.4248 46.7031 71.3665 46.1749 69.1807 46.1749C67.1771 46.1749 65.6106 46.612 64.4813 47.4863C63.352 48.3607 62.7873 49.4718 62.7873 50.8197C62.7873 52.0583 63.2791 53.0783 64.2627 53.8798C65.2828 54.6448 66.4849 55.0273 67.8693 55.0273Z" fill="#3C4043"/>
<path d="M87.5487 32.0219H93.2317V36.0656H93.5596C94.1425 34.6812 95.1989 33.5337 96.729 32.623C98.259 31.6758 99.8255 31.2022 101.428 31.2022C102.74 31.2022 103.815 31.3843 104.652 31.7486V38.0328C103.414 37.4135 102.03 37.1038 100.499 37.1038C98.5323 37.1038 96.8747 37.8689 95.5268 39.3989C94.2153 40.8925 93.5596 42.7322 93.5596 44.918V59.1257H87.5487V32.0219Z" fill="#3C4043"/>
<path d="M109.054 32.0219H114.737V35.6284H115.065C115.867 34.3169 117.033 33.2423 118.563 32.4044C120.093 31.5665 121.75 31.1475 123.535 31.1475C126.887 31.1475 129.419 32.1311 131.131 34.0984C132.88 36.0656 133.754 38.7796 133.754 42.2404V59.1257H127.743V43.0601C127.743 38.7978 125.757 36.6667 121.787 36.6667C119.783 36.6667 118.162 37.4681 116.923 39.071C115.685 40.674 115.065 42.5683 115.065 44.7541V59.1257H109.054V32.0219Z" fill="#3C4043"/>
<path d="M165.7 60C161.993 60 158.606 59.1266 155.54 57.3797C152.51 55.6328 150.121 53.2442 148.374 50.2139C146.627 47.148 145.754 43.7433 145.754 40C145.754 36.2567 146.627 32.8699 148.374 29.8396C150.121 26.7736 152.51 24.3672 155.54 22.6203C158.606 20.8734 161.993 20 165.7 20C171.44 20 176.164 22.0856 179.871 26.2567L175.647 30.3743C174.328 28.8057 172.848 27.6471 171.208 26.8984C169.604 26.1141 167.768 25.7219 165.7 25.7219C163.134 25.7219 160.781 26.3102 158.642 27.4866C156.538 28.6631 154.863 30.3387 153.615 32.5134C152.403 34.6524 151.797 37.1479 151.797 40C151.797 42.852 152.403 45.3654 153.615 47.5401C154.863 49.6791 156.538 51.3369 158.642 52.5134C160.781 53.6898 163.134 54.2781 165.7 54.2781C169.978 54.2781 173.615 52.4955 176.609 48.9305L180.941 53.1016C179.123 55.2763 176.895 56.9697 174.257 58.1818C171.654 59.3939 168.802 60 165.7 60Z" fill="url(#paint0_linear)"/>
<path d="M198.49 60C195.317 60 192.465 59.0731 189.934 57.2192C187.403 55.3654 185.656 52.7629 184.693 49.4118L190.362 47.1123C190.932 49.2157 191.93 50.9447 193.356 52.2995C194.818 53.6185 196.565 54.2781 198.597 54.2781C200.486 54.2781 202.091 53.7968 203.41 52.8342C204.729 51.836 205.388 50.4813 205.388 48.7701C205.388 47.2014 204.8 45.918 203.624 44.9198C202.483 43.8859 200.468 42.852 197.581 41.8182L195.174 40.9626C192.608 40.0713 190.451 38.7879 188.704 37.1123C186.957 35.4367 186.083 33.2264 186.083 30.4813C186.083 28.5918 186.6 26.8449 187.634 25.2406C188.668 23.6364 190.094 22.3708 191.912 21.4438C193.766 20.4813 195.852 20 198.169 20C201.52 20 204.194 20.82 206.19 22.4599C208.187 24.0642 209.524 25.8824 210.201 27.9144L204.8 30.2139C204.408 29.0018 203.659 27.9323 202.554 27.0053C201.449 26.0784 200.023 25.615 198.276 25.615C196.529 25.615 195.05 26.0606 193.837 26.9519C192.661 27.8431 192.073 28.984 192.073 30.3743C192.073 31.6934 192.608 32.7807 193.677 33.6364C194.747 34.492 196.422 35.3119 198.704 36.0963L201.11 36.8984C204.39 38.0392 206.921 39.5365 208.704 41.3904C210.522 43.2086 211.431 45.6506 211.431 48.7166C211.431 51.2121 210.789 53.3155 209.506 55.0267C208.223 56.7023 206.583 57.9501 204.586 58.7701C202.625 59.59 200.593 60 198.49 60Z" fill="url(#paint1_linear)"/>
<path d="M229.145 60C225.972 60 223.12 59.0731 220.588 57.2192C218.057 55.3654 216.31 52.7629 215.348 49.4118L221.016 47.1123C221.587 49.2157 222.585 50.9447 224.011 52.2995C225.473 53.6185 227.219 54.2781 229.252 54.2781C231.141 54.2781 232.745 53.7968 234.064 52.8342C235.383 51.836 236.043 50.4813 236.043 48.7701C236.043 47.2014 235.455 45.918 234.278 44.9198C233.137 43.8859 231.123 42.852 228.235 41.8182L225.829 40.9626C223.262 40.0713 221.105 38.7879 219.358 37.1123C217.612 35.4367 216.738 33.2264 216.738 30.4813C216.738 28.5918 217.255 26.8449 218.289 25.2406C219.323 23.6364 220.749 22.3708 222.567 21.4438C224.421 20.4813 226.506 20 228.824 20C232.175 20 234.849 20.82 236.845 22.4599C238.842 24.0642 240.178 25.8824 240.856 27.9144L235.455 30.2139C235.063 29.0018 234.314 27.9323 233.209 27.0053C232.104 26.0784 230.678 25.615 228.931 25.615C227.184 25.615 225.704 26.0606 224.492 26.9519C223.316 27.8431 222.727 28.984 222.727 30.3743C222.727 31.6934 223.262 32.7807 224.332 33.6364C225.401 34.492 227.077 35.3119 229.358 36.0963L231.765 36.8984C235.045 38.0392 237.576 39.5365 239.358 41.3904C241.177 43.2086 242.086 45.6506 242.086 48.7166C242.086 51.2121 241.444 53.3155 240.161 55.0267C238.877 56.7023 237.237 57.9501 235.241 58.7701C233.28 59.59 231.248 60 229.145 60Z" fill="url(#paint2_linear)"/>
<path d="M248.462 32.4599V20.8556H254.452V32.4599L253.81 46.6845H249.051L248.462 32.4599ZM251.457 59.4652C250.316 59.4652 249.336 59.0731 248.516 58.2888C247.731 57.4688 247.339 56.4884 247.339 55.3476C247.339 54.2068 247.731 53.2442 248.516 52.4599C249.336 51.6756 250.316 51.2834 251.457 51.2834C252.598 51.2834 253.56 51.6756 254.345 52.4599C255.129 53.2442 255.521 54.2068 255.521 55.3476C255.521 56.4884 255.129 57.4688 254.345 58.2888C253.56 59.0731 252.598 59.4652 251.457 59.4652Z" fill="url(#paint3_linear)"/>
<defs>
<linearGradient id="paint0_linear" x1="145.754" y1="60" x2="258.916" y2="36.0156" gradientUnits="userSpaceOnUse">
<stop offset="0.0677083" stop-color="#9933FF"/>
<stop offset="0.34375" stop-color="#0066FF"/>
<stop offset="0.619792" stop-color="#3399FF"/>
<stop offset="0.911458" stop-color="#33CC00"/>
</linearGradient>
<linearGradient id="paint1_linear" x1="145.754" y1="60" x2="258.916" y2="36.0156" gradientUnits="userSpaceOnUse">
<stop offset="0.0677083" stop-color="#9933FF"/>
<stop offset="0.34375" stop-color="#0066FF"/>
<stop offset="0.619792" stop-color="#3399FF"/>
<stop offset="0.911458" stop-color="#33CC00"/>
</linearGradient>
<linearGradient id="paint2_linear" x1="145.754" y1="60" x2="258.916" y2="36.0156" gradientUnits="userSpaceOnUse">
<stop offset="0.0677083" stop-color="#9933FF"/>
<stop offset="0.34375" stop-color="#0066FF"/>
<stop offset="0.619792" stop-color="#3399FF"/>
<stop offset="0.911458" stop-color="#33CC00"/>
</linearGradient>
<linearGradient id="paint3_linear" x1="145.754" y1="60" x2="258.916" y2="36.0156" gradientUnits="userSpaceOnUse">
<stop offset="0.0677083" stop-color="#9933FF"/>
<stop offset="0.34375" stop-color="#0066FF"/>
<stop offset="0.619792" stop-color="#3399FF"/>
<stop offset="0.911458" stop-color="#33CC00"/>
</linearGradient>
</defs>
</svg>

<svg width="256" height="80" viewBox="0 0 256 80" fill="none" xmlns="http://www.w3.org/2000/svg"><path d="M0 20h6.12v33.279h16.776v5.847H0V20zM39.76 60c-2.66 0-5.064-.62-7.213-1.858-2.113-1.239-3.771-2.95-4.973-5.137-1.202-2.222-1.803-4.699-1.803-7.431 0-2.623.564-5.028 1.694-7.213 1.165-2.223 2.786-3.971 4.863-5.246 2.076-1.312 4.444-1.968 7.104-1.968 2.732 0 5.1.602 7.104 1.804 2.04 1.202 3.588 2.878 4.644 5.027 1.057 2.113 1.585 4.554 1.585 7.322 0 .328-.018.656-.054.984-.037.328-.055.51-.055.547H31.782c.182 2.477 1.074 4.39 2.677 5.737 1.603 1.348 3.424 2.022 5.465 2.022 3.133 0 5.537-1.457 7.213-4.371l5.136 2.459a14.195 14.195 0 0 1-5.027 5.355C45.133 59.344 42.638 60 39.76 60zm6.885-17.76c-.073-.874-.364-1.766-.874-2.677-.51-.91-1.312-1.676-2.405-2.295-1.056-.656-2.386-.984-3.989-.984-1.785 0-3.333.547-4.645 1.64-1.275 1.092-2.149 2.531-2.623 4.316h14.536zM66.886 60c-1.931 0-3.68-.383-5.246-1.148-1.53-.801-2.75-1.894-3.661-3.278-.875-1.421-1.312-3.024-1.312-4.809 0-2.842 1.057-5.082 3.17-6.721 2.149-1.64 4.863-2.46 8.142-2.46 2.877 0 5.337.492 7.377 1.476v-1.147c0-1.64-.656-2.988-1.968-4.044-1.275-1.093-2.823-1.64-4.644-1.64-2.77 0-4.991 1.13-6.667 3.389l-4.59-3.17a12.728 12.728 0 0 1 4.754-3.934c1.93-.911 4.098-1.367 6.503-1.367 3.97 0 7.03 1.002 9.18 3.006 2.186 1.967 3.279 4.754 3.279 8.36v16.613h-5.847v-3.334h-.328a10.746 10.746 0 0 1-3.334 3.06c-1.347.766-2.95 1.148-4.808 1.148zm.983-4.973a7.267 7.267 0 0 0 3.716-.983c1.166-.692 2.077-1.585 2.732-2.678.693-1.13 1.039-2.331 1.039-3.606a12.67 12.67 0 0 0-6.175-1.585c-2.004 0-3.57.437-4.7 1.311-1.129.875-1.694 1.986-1.694 3.334 0 1.238.492 2.258 1.476 3.06 1.02.765 2.222 1.147 3.606 1.147zM87.549 32.022h5.683v4.044h.328c.582-1.385 1.639-2.532 3.169-3.443 1.53-.947 3.097-1.42 4.699-1.42 1.312 0 2.387.181 3.224.546v6.284c-1.238-.62-2.622-.93-4.153-.93-1.967 0-3.624.766-4.972 2.296-1.312 1.493-1.967 3.333-1.967 5.519v14.208h-6.011V32.022zM109.054 32.022h5.683v3.606h.328c.802-1.311 1.968-2.386 3.498-3.224a10.185 10.185 0 0 1 4.972-1.257c3.352 0 5.884.984 7.596 2.951 1.749 1.968 2.623 4.682 2.623 8.142v16.886h-6.011V43.06c0-4.262-1.986-6.393-5.956-6.393-2.004 0-3.625.801-4.864 2.404-1.238 1.603-1.858 3.497-1.858 5.683v14.372h-6.011V32.022z" fill="#3C4043"/><path d="M165.7 60c-3.707 0-7.094-.873-10.16-2.62a19.205 19.205 0 0 1-7.166-7.166c-1.747-3.066-2.62-6.47-2.62-10.214 0-3.743.873-7.13 2.62-10.16 1.747-3.066 4.136-5.473 7.166-7.22 3.066-1.747 6.453-2.62 10.16-2.62 5.74 0 10.464 2.086 14.171 6.257l-4.224 4.117c-1.319-1.568-2.799-2.727-4.439-3.476-1.604-.784-3.44-1.176-5.508-1.176-2.566 0-4.919.588-7.058 1.765-2.104 1.176-3.779 2.852-5.027 5.026-1.212 2.14-1.818 4.635-1.818 7.487 0 2.852.606 5.365 1.818 7.54 1.248 2.14 2.923 3.797 5.027 4.973 2.139 1.177 4.492 1.765 7.058 1.765 4.278 0 7.915-1.782 10.909-5.347l4.332 4.17c-1.818 2.175-4.046 3.869-6.684 5.08C171.654 59.395 168.802 60 165.7 60z" fill="url(#a)"/><path d="M198.49 60c-3.173 0-6.025-.927-8.556-2.78-2.531-1.855-4.278-4.457-5.241-7.808l5.669-2.3c.57 2.104 1.568 3.833 2.994 5.188 1.462 1.319 3.209 1.978 5.241 1.978 1.889 0 3.494-.481 4.813-1.444 1.319-.998 1.978-2.353 1.978-4.064 0-1.569-.588-2.852-1.764-3.85-1.141-1.034-3.156-2.068-6.043-3.102l-2.407-.855c-2.566-.892-4.723-2.175-6.47-3.85-1.747-1.676-2.621-3.887-2.621-6.632 0-1.89.517-3.636 1.551-5.24 1.034-1.605 2.46-2.87 4.278-3.797 1.854-.963 3.94-1.444 6.257-1.444 3.351 0 6.025.82 8.021 2.46 1.997 1.604 3.334 3.422 4.011 5.454l-5.401 2.3c-.392-1.212-1.141-2.282-2.246-3.209s-2.531-1.39-4.278-1.39c-1.747 0-3.226.446-4.439 1.337-1.176.891-1.764 2.032-1.764 3.422 0 1.32.535 2.407 1.604 3.262 1.07.856 2.745 1.676 5.027 2.46l2.406.802c3.28 1.141 5.811 2.638 7.594 4.492 1.818 1.819 2.727 4.26 2.727 7.327 0 2.495-.642 4.599-1.925 6.31-1.283 1.675-2.923 2.923-4.92 3.743A15.654 15.654 0 0 1 198.49 60z" fill="url(#b)"/><path d="M229.145 60c-3.173 0-6.025-.927-8.557-2.78-2.531-1.855-4.278-4.457-5.24-7.808l5.668-2.3c.571 2.104 1.569 3.833 2.995 5.188 1.462 1.319 3.208 1.978 5.241 1.978 1.889 0 3.493-.481 4.812-1.444 1.319-.998 1.979-2.353 1.979-4.064 0-1.569-.588-2.852-1.765-3.85-1.141-1.034-3.155-2.068-6.043-3.102l-2.406-.855c-2.567-.892-4.724-2.175-6.471-3.85-1.746-1.676-2.62-3.887-2.62-6.632 0-1.89.517-3.636 1.551-5.24 1.034-1.605 2.46-2.87 4.278-3.797 1.854-.963 3.939-1.444 6.257-1.444 3.351 0 6.025.82 8.021 2.46 1.997 1.604 3.333 3.422 4.011 5.454l-5.401 2.3c-.392-1.212-1.141-2.282-2.246-3.209s-2.531-1.39-4.278-1.39c-1.747 0-3.227.446-4.439 1.337-1.176.891-1.765 2.032-1.765 3.422 0 1.32.535 2.407 1.605 3.262 1.069.856 2.745 1.676 5.026 2.46l2.407.802c3.28 1.141 5.811 2.638 7.593 4.492 1.819 1.819 2.728 4.26 2.728 7.327 0 2.495-.642 4.599-1.925 6.31-1.284 1.675-2.924 2.923-4.92 3.743a15.654 15.654 0 0 1-6.096 1.23z" fill="url(#c)"/><path d="M248.462 32.46V20.856h5.99V32.46l-.642 14.224h-4.759l-.589-14.224zm2.995 27.005c-1.141 0-2.121-.392-2.941-1.176-.785-.82-1.177-1.8-1.177-2.941 0-1.141.392-2.104 1.177-2.888.82-.784 1.8-1.177 2.941-1.177 1.141 0 2.103.393 2.888 1.177.784.784 1.176 1.747 1.176 2.888 0 1.14-.392 2.12-1.176 2.94-.785.785-1.747 1.177-2.888 1.177z" fill="url(#d)"/><defs><linearGradient id="a" x1="145.754" y1="60" x2="258.916" y2="36.016" gradientUnits="userSpaceOnUse"><stop offset=".068" stop-color="#93F"/><stop offset=".344" stop-color="#06F"/><stop offset=".62" stop-color="#39F"/><stop offset=".911" stop-color="#3C0"/></linearGradient><linearGradient id="b" x1="145.754" y1="60" x2="258.916" y2="36.016" gradientUnits="userSpaceOnUse"><stop offset=".068" stop-color="#93F"/><stop offset=".344" stop-color="#06F"/><stop offset=".62" stop-color="#39F"/><stop offset=".911" stop-color="#3C0"/></linearGradient><linearGradient id="c" x1="145.754" y1="60" x2="258.916" y2="36.016" gradientUnits="userSpaceOnUse"><stop offset=".068" stop-color="#93F"/><stop offset=".344" stop-color="#06F"/><stop offset=".62" stop-color="#39F"/><stop offset=".911" stop-color="#3C0"/></linearGradient><linearGradient id="d" x1="145.754" y1="60" x2="258.916" y2="36.016" gradientUnits="userSpaceOnUse"><stop offset=".068" stop-color="#93F"/><stop offset=".344" stop-color="#06F"/><stop offset=".62" stop-color="#39F"/><stop offset=".911" stop-color="#3C0"/></linearGradient></defs></svg>
